X:18438
T:Waltz,A. CJF.022
M:3/8
L:1/16
Q:60
C: 
S: C.J.Fox MS, 1829/33, Beverley,E.Yorks.
R:Waltz
O:England
A:East Yorkshire
B:Kidson Coll.Mitchell Lib.M1805
N:I have added the final repeat sign - PJH.
Z:P J Headford 2000
K:D
f>d|A2A2 f>d|A2A2 af|e^defge|fdcedB|A2A2 f>d|A2A2ef|\
(gfedce)|d4:|:!(ef)|(gf).e.a(fd)|
(ed).c(.ecA)|dcdefg|e2e2f2|gececA|gdcecA|dcdfec|.d2.d2:||


